!! 00000] TT[WS
!!!OTL: Kua saosao
!!!ARE: Asia, China,ÿShanxi Ningwu
!! Ethnic Group: Han
!! WI, 137 (2)
!!!SCT: J0166
!!!YEM: Copyright 1995, estate of Helmut Schaffrath.
**kern
*ICvox
*Ivox
*M2/4
*k[f#]
*G:
{8dd
16ee
16dd
4a
=1
8ee
16dd
16b
4a
=2
8dd
8dd
8ee
16dd
16b
=3
16a
16b
16a
16g
4e}
=4
{8a
8a
8dd
8dd
=5
8e
8g
4cc
=6
8e
16e
16g
8e
16d
16B
=7
2A}
==
!!!AGN: Xiaodiao
!!!ONB: ESAC (Essen Associative Code) Database: CHINA
!!!AMT: simple duple
!!!AIN: vox
!!!EED: Helmut Schaffrath
!!!EEV: 1.0
*-
